X:1
T: Lord St. Clair's Reel
C:
R:Reel
Q: 232
K:G
M:4/4
L:1/8
|:G2 BG dG BG|eg fa ge dB|G2 BG dG BG|Ac BA GE DE|
G2 BG dG BG|eg fa ge dB|G2 BG dG BG|Ac BA G3d|
g2 eg fa df|gf ga bf ef|gb eg fa dc|Bd gd BG Gd|
g2 eg fa df|gf ga be ef|((3bag) ((3agf) ge dc|Bd gd BG G2:|
